X:1
T:The Bonny Bunch of Roses-O!
B:Marrow Bones, Ed Frank Purslow, EFDS Publications,1965
S:Chas. Windebank, Lyndhurst, Hants, July 1906
Z:Gardiner H.399
M:2/4
L:1/16
K:C
e3d |c2A2 G2E2 |G3A G2G2 |c2c2 d2cd |
w:By the dan-gers of the o--cean, one morn-ing in the_
e2 d2 d2 e3/2 d |c2A2 G2E2 |G3A G2G2 |c2c2 d2cd |
w:month of June, The sweet feath-ered warb-ling song--sters their charm-ing notes so_
e2c2 c3c |e2d2 e2f2 |g2a2 g2e2 |f3e f2g2 |
w:sweet did tune, 'Twas there I spied a fe--male * seem-ing-ly in
a2d2 d2ed |c2A2 G2E2 |G3A G2G2 |c2cc ddBd |
w:grief and woe, Con-- vers-ing with young Buon-a-parte con-cern-ing the bon-ny bunch of
e2c2 c2  |]
w:Ro-ses O!
